X:1
T:Fred til Bod, 77.77.77
T:Ludvig Mathias Lindeman, 1871
T:Fred til Bod, 77.77.77
T:Public Domain
C:Ludvig Mathias Lindeman, 1871
Z:Public Domain
%%score ( 1 2 ) 3
L:1/8
M:4/4
K:C
V:1 treble 
V:2 treble 
V:3 bass 
V:1
 [Ec]2 [CG]2 [CE]2 (GF) | [G,E]2 C2 [B,D]4 | [CE]3 [DG] [C^F]2 [B,G]2 | [DB]2 [DA]2 [DG]4 | %4
 [Cc]2 [DG]2 [CE]2 (GF) | [CE]2 C2 [B,D]4 | [CE]3 [CG] [D^F]2 [DG]2 | [DB]2 [^FA]2 [DG]4 | %8
 [FA]2 G2 (AB) [Ec]2 | [DG]2 (CB,) [B,E]4 | [DF]3 [DF] [DG]2 [CE]2 | [CD]2 [B,D]2 [G,C]4 |] %12
V:2
 x6 D2 | x2 C2 x4 | x8 | x8 | x6 B,2 | x2 C2 x4 | x8 | x8 | x2 G2 F2 x2 | x2 F2 x4 | x8 | x8 |] %12
V:3
 [C,G,]2 [E,G,]2 [C,G,]2 [B,,D,]2 | [C,E,]2 [A,,E,]2 [G,,G,]4 | [C,G,]3 [B,,D,] [A,,A,]2 [E,G,]2 | %3
 [D,G,]2 [D,^F,]2 [G,,B,]4 | [A,,E,]2 [B,,D,]2 [C,E,]2 [D,F,]2 | [E,G,]2 [F,A,]2 [F,G,]4 | %6
 [E,G,]3 [C,E,] [C,A,]2 [B,,G,]2 | [D,G,]2 [D,A,]2 [G,B,]4 | [F,C]2 [E,C]2 [D,F,]2 [C,G,]2 | %9
 [B,,G,]2 [A,,A,]2 [E,^G,]4 | [D,A,]3 [C,A,] [B,,G,]2 [C,G,]2 | [F,,A,]2 [G,,G,]2 [C,E,]4 |] %12

